public/images/no-prize.svg

<svg width="58" height="57" viewBox="0 0 58 57" fill="none" xmlns="http://www.w3.org/2000/svg">
<g opacity="0.5">
<g opacity="0.7">
<path fill-rule="evenodd" clip-rule="evenodd" d="M23.4048 15.2277C22.9836 14.5475 22.0212 14.559 21.6395 15.2487C21.3528 15.7665 21.5422 16.4343 22.0578 16.7237L25.5285 18.6718L25.3608 18.3857L23.4048 15.2277ZM18.3499 13.2676C20.1292 10.0531 24.6144 9.99972 26.5778 13.1698L28.5594 16.3692L32.5891 23.2417L26.3266 23.2417C25.9953 23.2417 25.6677 23.1554 25.3744 22.9907L20.2997 20.1424C17.8967 18.7937 17.014 15.6813 18.3499 13.2676Z" fill="#BDC2C4"/>
<path fill-rule="evenodd" clip-rule="evenodd" d="M35.103 15.2277C35.5243 14.5475 36.4866 14.559 36.8683 15.2487C37.155 15.7665 36.9656 16.4343 36.45 16.7237L32.9793 18.6718L33.147 18.3857L35.103 15.2277ZM40.1579 13.2676C38.3786 10.0531 33.8934 9.99972 31.93 13.1698L29.9484 16.3692L25.9188 23.2417L32.1812 23.2417C32.5126 23.2417 32.8401 23.1554 33.1335 22.9907L38.2081 20.1424C40.6111 18.7937 41.4938 15.6813 40.1579 13.2676Z" fill="#BDC2C4"/>
<path fill-rule="evenodd" clip-rule="evenodd" d="M16.0703 30.811L42.3443 30.811L42.3443 40.8817C42.3443 42.2956 41.1981 43.4417 39.7843 43.4417L18.6303 43.4417C17.2164 43.4417 16.0703 42.2956 16.0703 40.8817L16.0703 30.811ZM44.9043 28.251L44.9043 40.8817C44.9043 43.7094 42.612 46.0017 39.7843 46.0017L18.6303 46.0017C15.8026 46.0017 13.5103 43.7094 13.5103 40.8817L13.5103 28.251L44.9043 28.251Z" fill="#BDC2C4"/>
<path d="M31.8555 30.4336L26.6231 30.4336L26.6231 45.9884L31.8555 45.9884L31.8555 30.4336Z" fill="#BDC2C4"/>
<path d="M13.541 33.4355L13.541 38.8934L44.935 38.8934L44.935 33.4355L13.541 33.4355Z" fill="#BDC2C4"/>
<path fill-rule="evenodd" clip-rule="evenodd" d="M15.2894 23.3803L43.1893 23.3803C43.8962 23.3803 44.4693 23.9534 44.4693 24.6603L44.4693 26.5315C44.4693 27.2384 43.8962 27.8115 43.1893 27.8115L15.2894 27.8115C14.5825 27.8115 14.0094 27.2384 14.0094 26.5315L14.0094 24.6603C14.0094 23.9534 14.5825 23.3803 15.2894 23.3803ZM43.1893 20.8203C45.3101 20.8203 47.0293 22.5395 47.0293 24.6603L47.0293 26.5315C47.0293 28.6523 45.3101 30.3715 43.1893 30.3715L15.2894 30.3715C13.1686 30.3715 11.4494 28.6523 11.4494 26.5315L11.4494 24.6603C11.4494 22.5395 13.1686 20.8203 15.2894 20.8203L43.1893 20.8203Z" fill="#BDC2C4"/>
<path d="M31.8555 20.8818L26.6231 20.8818L26.6231 30.433L31.8555 30.433L31.8555 20.8818Z" fill="#BDC2C4"/>
</g>
<path fill-rule="evenodd" clip-rule="evenodd" d="M48.8822 8.5826C48.4642 8.16463 48.0364 7.76256 47.5994 7.37638C36.5464 -2.39185 19.655 -1.98977 9.0826 8.5826C-1.48977 19.155 -1.89185 36.0464 7.87638 47.0994C8.26256 47.5364 8.66463 47.9642 9.0826 48.3822C9.50057 48.8001 9.92842 49.2022 10.3654 49.5884C21.4184 59.3566 38.3098 58.9545 48.8822 48.3822C59.4545 37.8098 59.8566 20.9184 50.0884 9.86539C49.7022 9.42842 49.3001 9.00057 48.8822 8.5826ZM45.1049 9.8709C35.4319 1.47413 20.7689 1.87437 11.5716 11.0716C2.37437 20.2689 1.97413 34.9319 10.3709 44.6049L45.1049 9.8709ZM12.8599 47.0939L47.5939 12.3599C55.9906 22.0329 55.5904 36.6959 46.3932 45.8932C37.1959 55.0904 22.5329 55.4906 12.8599 47.0939Z" fill="#BDC2C4"/>
</g>
</svg>

<svg xmlns="http://www.w3.org/2000/svg" width="58" height="57" fill="none"  opacity=".5" xmlns:v="https://vecta.io/nano"><g opacity=".7"><g fill-rule="evenodd" fill="#bdc2c4"><path d="M23.405 15.228c-.421-.68-1.384-.669-1.765.021-.287.518-.097 1.186.418 1.475l3.471 1.948-.168-.286-1.956-3.158zm-5.055-1.96c1.779-3.214 6.264-3.268 8.228-.098l1.982 3.199 4.03 6.873h-6.263c-.331 0-.659-.086-.952-.251L20.3 20.142a5.11 5.11 0 0 1-1.95-6.875z"/><path d="M35.103 15.228c.421-.68 1.384-.669 1.765.021.287.518.097 1.186-.418 1.475l-3.471 1.948.168-.286 1.956-3.158zm5.055-1.96c-1.779-3.214-6.264-3.268-8.228-.098l-1.982 3.199-4.03 6.873h6.262a1.94 1.94 0 0 0 .952-.251l5.075-2.848a5.11 5.11 0 0 0 1.95-6.875zM16.07 30.811h26.274v10.071a2.56 2.56 0 0 1-2.56 2.56H18.63a2.56 2.56 0 0 1-2.56-2.56V30.811zm28.834-2.56v12.631a5.12 5.12 0 0 1-5.12 5.12H18.63a5.12 5.12 0 0 1-5.12-5.12V28.251h31.394z"/></g><path d="M31.856 30.434h-5.232v15.555h5.232V30.434z" fill="#bdc2c4"/><path d="M13.541 33.436v5.458h31.394v-5.458H13.541z" fill="#bdc2c4"/><path fill-rule="evenodd" d="M15.289 23.38h27.9a1.28 1.28 0 0 1 1.28 1.28v1.871a1.28 1.28 0 0 1-1.28 1.28h-27.9a1.28 1.28 0 0 1-1.28-1.28V24.66a1.28 1.28 0 0 1 1.28-1.28zm27.9-2.56a3.84 3.84 0 0 1 3.84 3.84v1.871a3.84 3.84 0 0 1-3.84 3.84h-27.9a3.84 3.84 0 0 1-3.84-3.84V24.66a3.84 3.84 0 0 1 3.84-3.84h27.9z" fill="#bdc2c4"/><path d="M31.856 20.882h-5.232v9.551h5.232v-9.551z" fill="#bdc2c4"/></g><path fill-rule="evenodd" d="M48.882 8.583l-1.283-1.206C36.546-2.392 19.655-1.99 9.083 8.583S-1.892 36.046 7.876 47.099c.386.437.788.865 1.206 1.283a28.62 28.62 0 0 0 1.283 1.206c11.053 9.768 27.944 9.366 38.517-1.206s10.974-27.464 1.206-38.517c-.386-.437-.788-.865-1.206-1.283zm-3.777 1.288c-9.673-8.397-24.336-7.997-33.533 1.201s-9.597 23.86-1.201 33.533L45.105 9.871zM12.86 47.094L47.594 12.36c8.397 9.673 7.997 24.336-1.201 33.533s-23.86 9.597-33.533 1.201z" fill="#bdc2c4"/></svg>
